X:1
T:Das Herrlich Hohe Fest, 66.66.668
T:Das Herrlich Hohe Fest, 66.66.668
T:Christoph Peter, ca. 1674
T:Public Domain Courtesy of the Cyber Hymnal™
C:Christoph Peter, ca. 1674
Z:Public Domain
Z:Courtesy of the Cyber Hymnal™
%%score ( 1 2 ) ( 3 4 )
L:1/8
Q:1/4=115
M:3/4
K:C
V:1 treble 
V:2 treble 
V:3 bass 
V:4 bass 
V:1
 C2 [CE]2 [DG]2 | [FA]4 [FB]2 | [Ec]6 | [Ec]2 [Ee]2 [Ac]2 | [GB]4 [^FA]2 | [GB]6 | %6
 [Fd]2 [Ad]2 [Fd]2 | [Ee]4 [Ge]2 | [Gd]6 | [Ee]2 [Ec]2 [Ec]2 | [FB]4 [EB]2 | !fermata![CA]6 | %12
 [CE]2 [CE]2 [DG]2 | [EG]4 [D^F]2 | [DG]6 | [CA]2 [FA]2 [Gc]2 | [Ac]4 [GB]2 | [Gc]6 | %18
 [GB]2 [Dd]2 [DG]2 x2 | ([Gc]3 [Fd] [Ee]2) | [Ad]2 [Gd]2 [Ec]2- | [Ec]6 |] %22
V:2
 C2 x4 | x6 | x6 | x6 | x6 | x6 | x6 | x6 | x6 | x6 | x6 | x6 | x6 | x6 | x6 | x6 | x6 | x6 | x8 | %19
 x6 | x6 | x6 |] %22
V:3
 C2 [A,C]2 [G,B,]2 | C4 [D,D]2 | [C,G,]6 | [A,,A,]2 [C,A,]2 [A,,C]2 | D4 [D,D]2 | [G,,D]6 | %6
 [D,D]2 [F,A,]2 [D,B,]2 | [C,C]4 [E,C]2 | [G,B,]6 | [^G,B,]2 [A,C]2 [C,A,]2 | [D,A,]4 [E,^G,]2 | %11
 !fermata![A,,A,]6 | [C,G,]2 [C,G,]2 [B,,G,]2 | [A,,C]4 [D,C]2 | [G,,B,]6 | [F,A,]2 [F,C]2 [E,C]2 | %16
 [D,F]4 [G,F]2 | [C,E]6 | D2 z B,2 x3 | ([E,C]3 [D,B,] [C,C]2) | [E,C]2 [G,B,]2 [C,C]2- | [C,C]6 |] %22
V:4
 C2 x4 | (F,2 E,2) x2 | x6 | x6 | (B,,3 C,) x2 | x6 | x6 | x6 | x6 | x6 | x6 | x6 | x6 | x6 | x6 | %15
 x6 | x6 | x6 | G,3 (B,2 A,) (G,F,) | x6 | x6 | x6 |] %22

